X:3153
T:Menuett efter Mattis Kollberg
M:3/4
L:1/16
O:Skåne
Q:120 
K:G
R:Menuett
g3d d2c2 c2B2 | g2d2 d2c2 c2B2 | gfed edcB A2Ac | BAGF G2FE D4 |
g3d d2c2 c2B2 | g2d2 d2c2 c2B2 | gfed edcB A2Ac | BAGF F2G2 G4 :|
g3b b2a2 a2g2 | d2d2 d2c2 c2B2 | g3b b2a2 a2g2 | d2d2 d2c2 c2B2 | 
gfed edcB A2Ac | BAGF G2FE D4 | g3b b2a2 a2g2 | d2d2 d2c2 c2B2 |
g2ab b2a2 a2g2 | d2d2 d2c2 c2B2 | gfed edcB A2Ac | BAGF F2G2 G4 :|  
(:musicend:)
(:music:)
